documentation/public/assets/images/file-input.svg

<svg width="135" height="40" viewBox="0 0 135 40" fill="none" xmlns="http://www.w3.org/2000/svg">
<path d="M36.3527 11.8864L36.0988 11.6326C36.2308 11.6669 36.3323 11.7683 36.3666 11.9003L36.3527 11.8864ZM35.6329 11.8992C35.6684 11.7713 35.7697 11.6692 35.8984 11.6336L35.6456 11.8864L35.6329 11.8992ZM40.7327 16.2664L37.3791 12.9129V12C37.3791 11.9451 37.376 11.891 37.3699 11.8378L41.2656 15.7336C41.4103 15.8783 41.4103 16.1217 41.2656 16.2664C41.1904 16.3416 41.088 16.38 40.9991 16.38C40.9102 16.38 40.8079 16.3416 40.7327 16.2664ZM34.6191 12V12.9129L31.2656 16.2664C31.1208 16.4112 30.8774 16.4112 30.7327 16.2664C30.588 16.1217 30.588 15.8783 30.7327 15.7336L34.6287 11.8375C34.6224 11.8909 34.6191 11.9451 34.6191 12ZM36.3791 13.3271V25C36.3791 25.2076 36.2093 25.38 35.9991 25.38C35.7916 25.38 35.6191 25.2102 35.6191 25V13.3271L35.9991 12.9471L36.3791 13.3271ZM27.9991 29.38C27.7916 29.38 27.6191 29.2102 27.6191 29C27.6191 28.7861 27.7853 28.62 27.9991 28.62H43.9991C44.2067 28.62 44.3791 28.7898 44.3791 29C44.3791 29.2139 44.213 29.38 43.9991 29.38H27.9991Z" fill="#0F67F5" stroke="#0F67F5"/>
<path d="M64.5298 14.3636H66.6378V21.9659C66.6378 22.7992 66.4408 23.5322 66.0469 24.1648C65.6567 24.7973 65.1075 25.2917 64.3991 25.6477C63.6908 26 62.8632 26.1761 61.9162 26.1761C60.9654 26.1761 60.1359 26 59.4276 25.6477C58.7192 25.2917 58.17 24.7973 57.7798 24.1648C57.3897 23.5322 57.1946 22.7992 57.1946 21.9659V14.3636H59.3026V21.7898C59.3026 22.2746 59.4086 22.7064 59.6207 23.0852C59.8366 23.464 60.1397 23.7614 60.5298 23.9773C60.92 24.1894 61.3821 24.2955 61.9162 24.2955C62.4503 24.2955 62.9124 24.1894 63.3026 23.9773C63.6965 23.7614 63.9995 23.464 64.2116 23.0852C64.4238 22.7064 64.5298 22.2746 64.5298 21.7898V14.3636ZM68.8381 29.2727V17.2727H70.8608V18.7159H70.9801C71.0862 18.5038 71.2358 18.2784 71.429 18.0398C71.6222 17.7973 71.8835 17.5909 72.2131 17.4205C72.5426 17.2462 72.9631 17.1591 73.4744 17.1591C74.1487 17.1591 74.7566 17.3314 75.2983 17.6761C75.8438 18.017 76.2756 18.5227 76.5938 19.1932C76.9157 19.8598 77.0767 20.678 77.0767 21.6477C77.0767 22.6061 76.9195 23.4205 76.6051 24.0909C76.2907 24.7614 75.8627 25.2727 75.321 25.625C74.7794 25.9773 74.1657 26.1534 73.4801 26.1534C72.9801 26.1534 72.5653 26.0701 72.2358 25.9034C71.9063 25.7367 71.6411 25.536 71.4403 25.3011C71.2434 25.0625 71.09 24.8371 70.9801 24.625H70.8949V29.2727H68.8381ZM70.8551 21.6364C70.8551 22.2008 70.9347 22.6951 71.0938 23.1193C71.2566 23.5436 71.4896 23.875 71.7926 24.1136C72.0994 24.3485 72.4706 24.4659 72.9062 24.4659C73.3608 24.4659 73.7415 24.3447 74.0483 24.1023C74.3551 23.8561 74.5862 23.5208 74.7415 23.0966C74.9006 22.6686 74.9801 22.1818 74.9801 21.6364C74.9801 21.0947 74.9025 20.6136 74.7472 20.1932C74.5919 19.7727 74.3608 19.4432 74.054 19.2045C73.7472 18.9659 73.3646 18.8466 72.9062 18.8466C72.4669 18.8466 72.0938 18.9621 71.7869 19.1932C71.4801 19.4242 71.2472 19.7481 71.0881 20.1648C70.9328 20.5814 70.8551 21.072 70.8551 21.6364ZM80.8949 14.3636V26H78.8381V14.3636H80.8949ZM86.8168 26.1705C85.9645 26.1705 85.2259 25.983 84.6009 25.608C83.9759 25.233 83.491 24.7083 83.1463 24.0341C82.8054 23.3598 82.6349 22.572 82.6349 21.6705C82.6349 20.7689 82.8054 19.9792 83.1463 19.3011C83.491 18.6231 83.9759 18.0966 84.6009 17.7216C85.2259 17.3466 85.9645 17.1591 86.8168 17.1591C87.669 17.1591 88.4077 17.3466 89.0327 17.7216C89.6577 18.0966 90.1406 18.6231 90.4815 19.3011C90.8262 19.9792 90.9986 20.7689 90.9986 21.6705C90.9986 22.572 90.8262 23.3598 90.4815 24.0341C90.1406 24.7083 89.6577 25.233 89.0327 25.608C88.4077 25.983 87.669 26.1705 86.8168 26.1705ZM86.8281 24.5227C87.2902 24.5227 87.6766 24.3958 87.9872 24.142C88.2978 23.8845 88.5289 23.5398 88.6804 23.108C88.8357 22.6761 88.9134 22.1951 88.9134 21.6648C88.9134 21.1307 88.8357 20.6477 88.6804 20.2159C88.5289 19.7803 88.2978 19.4337 87.9872 19.1761C87.6766 18.9186 87.2902 18.7898 86.8281 18.7898C86.3546 18.7898 85.9607 18.9186 85.6463 19.1761C85.3357 19.4337 85.1027 19.7803 84.9474 20.2159C84.7959 20.6477 84.7202 21.1307 84.7202 21.6648C84.7202 22.1951 84.7959 22.6761 84.9474 23.108C85.1027 23.5398 85.3357 23.8845 85.6463 24.142C85.9607 24.3958 86.3546 24.5227 86.8281 24.5227ZM95.2557 26.1761C94.7027 26.1761 94.2045 26.0777 93.7614 25.8807C93.322 25.6799 92.9735 25.3845 92.7159 24.9943C92.4621 24.6042 92.3352 24.1231 92.3352 23.5511C92.3352 23.0587 92.4261 22.6515 92.608 22.3295C92.7898 22.0076 93.0379 21.75 93.3523 21.5568C93.6667 21.3636 94.0208 21.2178 94.4148 21.1193C94.8125 21.017 95.2235 20.9432 95.6477 20.8977C96.1591 20.8447 96.5739 20.7973 96.892 20.7557C97.2102 20.7102 97.4413 20.642 97.5852 20.5511C97.733 20.4564 97.8068 20.3106 97.8068 20.1136V20.0795C97.8068 19.6515 97.6799 19.3201 97.4261 19.0852C97.1723 18.8504 96.8068 18.733 96.3295 18.733C95.8258 18.733 95.4261 18.8428 95.1307 19.0625C94.839 19.2822 94.642 19.5417 94.5398 19.8409L92.6193 19.5682C92.7708 19.0379 93.0208 18.5947 93.3693 18.2386C93.7178 17.8788 94.1439 17.6098 94.6477 17.4318C95.1515 17.25 95.7083 17.1591 96.3182 17.1591C96.7386 17.1591 97.1572 17.2083 97.5739 17.3068C97.9905 17.4053 98.3712 17.5682 98.7159 17.7955C99.0606 18.0189 99.3371 18.3239 99.5455 18.7102C99.7576 19.0966 99.8636 19.5795 99.8636 20.1591V26H97.8864V24.8011H97.8182C97.6932 25.0436 97.517 25.2708 97.2898 25.483C97.0663 25.6913 96.7841 25.8598 96.4432 25.9886C96.1061 26.1136 95.7102 26.1761 95.2557 26.1761ZM95.7898 24.6648C96.2027 24.6648 96.5606 24.5833 96.8636 24.4205C97.1667 24.2538 97.3996 24.0341 97.5625 23.7614C97.7292 23.4886 97.8125 23.1913 97.8125 22.8693V21.8409C97.7481 21.8939 97.6383 21.9432 97.483 21.9886C97.3314 22.0341 97.161 22.0739 96.9716 22.108C96.7822 22.142 96.5947 22.1723 96.4091 22.1989C96.2235 22.2254 96.0625 22.2481 95.9261 22.267C95.6193 22.3087 95.3447 22.3769 95.1023 22.4716C94.8598 22.5663 94.6686 22.6989 94.5284 22.8693C94.3883 23.036 94.3182 23.2519 94.3182 23.517C94.3182 23.8958 94.4564 24.1818 94.733 24.375C95.0095 24.5682 95.3617 24.6648 95.7898 24.6648ZM105.17 26.1534C104.485 26.1534 103.871 25.9773 103.33 25.625C102.788 25.2727 102.36 24.7614 102.045 24.0909C101.731 23.4205 101.574 22.6061 101.574 21.6477C101.574 20.678 101.733 19.8598 102.051 19.1932C102.373 18.5227 102.807 18.017 103.352 17.6761C103.898 17.3314 104.506 17.1591 105.176 17.1591C105.688 17.1591 106.108 17.2462 106.438 17.4205C106.767 17.5909 107.028 17.7973 107.222 18.0398C107.415 18.2784 107.564 18.5038 107.67 18.7159H107.756V14.3636H109.818V26H107.795V24.625H107.67C107.564 24.8371 107.411 25.0625 107.21 25.3011C107.009 25.536 106.744 25.7367 106.415 25.9034C106.085 26.0701 105.67 26.1534 105.17 26.1534ZM105.744 24.4659C106.18 24.4659 106.551 24.3485 106.858 24.1136C107.165 23.875 107.398 23.5436 107.557 23.1193C107.716 22.6951 107.795 22.2008 107.795 21.6364C107.795 21.072 107.716 20.5814 107.557 20.1648C107.402 19.7481 107.17 19.4242 106.864 19.1932C106.561 18.9621 106.188 18.8466 105.744 18.8466C105.286 18.8466 104.903 18.9659 104.597 19.2045C104.29 19.4432 104.059 19.7727 103.903 20.1932C103.748 20.6136 103.67 21.0947 103.67 21.6364C103.67 22.1818 103.748 22.6686 103.903 23.0966C104.063 23.5208 104.295 23.8561 104.602 24.1023C104.913 24.3447 105.294 24.4659 105.744 24.4659Z" fill="#0F67F5"/>
<rect x="0.5" y="0.5" width="134" height="39" rx="3.5" stroke="#0F67F5"/>
</svg>

<svg width="135" height="40" fill="none" xmlns="http://www.w3.org/2000/svg"><path d="m36.35 11.89-.25-.26a.4.4 0 0 1 .27.27l-.02-.01Zm-.72 0a.38.38 0 0 1 .27-.26l-.25.26h-.02Zm5.1 4.38-3.35-3.36V12l-.01-.16 3.9 3.9a.38.38 0 0 1-.27.64.39.39 0 0 1-.27-.11ZM34.62 12v.91l-3.35 3.36a.38.38 0 0 1-.54 0 .38.38 0 0 1 0-.54l3.9-3.9-.01.17Zm1.76 1.33V25c0 .2-.17.38-.38.38a.38.38 0 0 1-.38-.38V13.33l.38-.38.38.38ZM28 29.38a.38.38 0 0 1-.38-.38c0-.21.17-.38.38-.38h16c.2 0 .38.17.38.38s-.17.38-.38.38H28Z" fill="#0F67F5" stroke="#0F67F5"/><path d="M64.53 14.36h2.1v7.6c0 .84-.19 1.57-.58 2.2a4 4 0 0 1-1.65 1.49c-.7.35-1.54.53-2.48.53-.95 0-1.78-.18-2.5-.53a4 4 0 0 1-1.64-1.49 4.1 4.1 0 0 1-.59-2.2v-7.6h2.11v7.43c0 .48.1.92.32 1.3.22.37.52.67.91.89a3 3 0 0 0 1.39.32c.53 0 1-.11 1.38-.32.4-.22.7-.52.91-.9.21-.37.32-.8.32-1.29v-7.43Zm4.3 14.91v-12h2.03v1.45h.12c.1-.22.26-.44.45-.68a2.46 2.46 0 0 1 2.04-.88 3.33 3.33 0 0 1 3.12 2.03c.33.67.49 1.49.49 2.46 0 .96-.16 1.77-.47 2.44a3.3 3.3 0 0 1-3.13 2.06 2.53 2.53 0 0 1-2.04-.85 3.9 3.9 0 0 1-.46-.67h-.09v4.64h-2.05Zm2.03-7.63c0 .56.07 1.06.23 1.48.17.42.4.75.7 1 .3.23.68.35 1.12.35.45 0 .83-.13 1.14-.37.3-.24.54-.58.7-1 .15-.43.23-.92.23-1.46 0-.55-.08-1.03-.23-1.45a2.17 2.17 0 0 0-.7-.99c-.3-.23-.69-.35-1.14-.35-.44 0-.82.11-1.12.34-.31.23-.54.56-.7.97-.16.42-.23.91-.23 1.48Zm10.03-7.28V26h-2.05V14.36h2.05Zm5.93 11.81c-.86 0-1.6-.19-2.22-.56a3.82 3.82 0 0 1-1.45-1.58 5.17 5.17 0 0 1-.52-2.36c0-.9.18-1.7.52-2.37.34-.68.83-1.2 1.45-1.58a4.23 4.23 0 0 1 2.22-.56c.85 0 1.59.19 2.21.56.63.38 1.11.9 1.45 1.58.35.68.52 1.47.52 2.37 0 .9-.17 1.69-.52 2.36-.34.68-.82 1.2-1.45 1.58-.62.37-1.36.56-2.21.56Zm0-1.65c.47 0 .86-.12 1.17-.38.3-.26.54-.6.69-1.03.16-.43.23-.91.23-1.45a4.1 4.1 0 0 0-.23-1.44 2.3 2.3 0 0 0-.7-1.04 1.7 1.7 0 0 0-1.15-.39c-.48 0-.87.13-1.18.39-.31.25-.55.6-.7 1.04-.15.43-.23.91-.23 1.44 0 .54.08 1.02.23 1.45.15.43.39.77.7 1.03.31.26.7.38 1.18.38Zm8.44 1.66c-.56 0-1.06-.1-1.5-.3-.44-.2-.79-.5-1.04-.89a2.6 2.6 0 0 1-.38-1.44 2.11 2.11 0 0 1 1.02-2c.3-.19.66-.33 1.05-.43.4-.1.81-.18 1.24-.22l1.24-.14c.32-.05.55-.12.7-.2.14-.1.22-.25.22-.45v-.03c0-.43-.13-.76-.38-1a1.6 1.6 0 0 0-1.1-.35c-.5 0-.9.11-1.2.33-.3.22-.49.48-.59.78l-1.92-.27a3.07 3.07 0 0 1 2.03-2.14 5.44 5.44 0 0 1 2.93-.13c.41.1.8.27 1.14.5.34.22.62.52.83.91.2.39.31.87.31 1.45V26H97.9v-1.2h-.07a2.51 2.51 0 0 1-1.39 1.2c-.33.12-.73.19-1.18.19Zm.53-1.52c.41 0 .77-.08 1.07-.24.3-.17.54-.39.7-.66.17-.27.25-.57.25-.9v-1.02a.97.97 0 0 1-.33.15l-.5.12a16.16 16.16 0 0 1-1.05.16c-.31.04-.59.1-.83.2s-.43.23-.57.4a.97.97 0 0 0-.21.65 1 1 0 0 0 .41.86c.28.19.63.28 1.06.28Zm9.38 1.5a3.3 3.3 0 0 1-1.84-.54 3.6 3.6 0 0 1-1.28-1.53 5.73 5.73 0 0 1-.48-2.44c0-.97.16-1.79.48-2.46a3.35 3.35 0 0 1 4.39-1.77c.33.17.59.38.78.62.2.24.34.46.45.68h.09v-4.36h2.06V26h-2.02v-1.38h-.13c-.1.22-.26.44-.46.68a2.54 2.54 0 0 1-2.04.85Zm.57-1.7c.44 0 .81-.11 1.12-.35.3-.23.54-.57.7-1 .16-.41.23-.9.23-1.47s-.07-1.06-.23-1.48a2.1 2.1 0 0 0-.7-.97 1.8 1.8 0 0 0-1.12-.34c-.45 0-.84.12-1.14.35-.31.24-.54.57-.7 1-.15.41-.23.9-.23 1.44 0 .54.08 1.03.23 1.46.16.42.4.76.7 1 .31.24.7.37 1.14.37Z" fill="#0F67F5"/><rect x=".5" y=".5" width="134" height="39" rx="3.5" stroke="#0F67F5"/></svg>
